flaticon/transportation/car-13.svg

<svg xmlns="http://www.w3.org/2000/svg" width="32" height="32" viewBox="0 0 24 24">
    <path d="M 20.710938 11.441406 L 19.597656 6.679688 C 19.230469 5.128906 17.742188 3.984375 16.011719 3.894531 L 16.011719 3.820312 C 16.011719 1.714844 14.296875 0 12.191406 0 L 11.808594 0 C 9.703125 0 7.988281 1.714844 7.988281 3.820312 L 7.988281 3.894531 C 6.253906 3.984375 4.769531 5.128906 4.402344 6.679688 L 3.285156 11.441406 C 1.441406 11.628906 0 13.050781 0 14.777344 L 0 17.660156 C 0 19.195312 1.140625 20.492188 2.691406 20.890625 L 2.691406 21.835938 C 2.691406 23.03125 3.75 24 5.050781 24 L 5.449219 24 C 6.75 24 7.808594 23.03125 7.808594 21.835938 L 7.808594 21.015625 L 16.191406 21.015625 L 16.191406 21.835938 C 16.191406 23.03125 17.25 24 18.550781 24 L 18.949219 24 C 20.25 24 21.308594 23.03125 21.308594 21.835938 L 21.308594 20.890625 C 22.859375 20.492188 24 19.195312 24 17.660156 L 24 14.777344 C 24 13.050781 22.558594 11.625 20.710938 11.441406 Z M 11.808594 1.019531 L 12.191406 1.019531 C 13.734375 1.019531 14.992188 2.277344 14.992188 3.820312 L 14.992188 3.886719 L 9.007812 3.886719 L 9.007812 3.820312 C 9.007812 2.277344 10.265625 1.019531 11.808594 1.019531 Z M 5.398438 6.914062 C 5.671875 5.75 6.851562 4.90625 8.210938 4.90625 L 15.789062 4.90625 C 17.148438 4.90625 18.328125 5.75 18.601562 6.914062 L 19.660156 11.421875 L 4.339844 11.421875 Z M 6.789062 21.835938 C 6.789062 22.46875 6.1875 22.980469 5.449219 22.980469 L 5.050781 22.980469 C 4.316406 22.980469 3.714844 22.46875 3.714844 21.835938 L 3.714844 21.015625 L 6.789062 21.015625 Z M 18.949219 22.980469 L 18.550781 22.980469 C 17.8125 22.980469 17.210938 22.46875 17.210938 21.835938 L 17.210938 21.015625 L 20.285156 21.015625 L 20.285156 21.835938 C 20.285156 22.46875 19.683594 22.980469 18.949219 22.980469 Z M 22.980469 17.660156 C 22.980469 18.945312 21.777344 19.996094 20.304688 19.996094 L 3.695312 19.996094 C 2.222656 19.996094 1.019531 18.945312 1.019531 17.660156 L 1.019531 14.777344 C 1.019531 13.488281 2.222656 12.441406 3.695312 12.441406 L 20.304688 12.441406 C 21.777344 12.441406 22.980469 13.488281 22.980469 14.777344 Z M 22.980469 17.660156"/>
    <path d="M18.953125 14.214844C17.683594 14.214844 16.652344 15.164062 16.652344 16.324219 16.652344 17.488281 17.683594 18.433594 18.953125 18.433594 20.21875 18.433594 21.25 17.488281 21.25 16.324219 21.25 15.160156 20.21875 14.214844 18.953125 14.214844zM18.953125 17.414062C18.246094 17.414062 17.671875 16.925781 17.671875 16.324219 17.671875 15.726562 18.246094 15.238281 18.953125 15.238281 19.65625 15.238281 20.230469 15.726562 20.230469 16.324219 20.230469 16.925781 19.65625 17.414062 18.953125 17.414062zM5.046875 14.214844C3.78125 14.214844 2.75 15.164062 2.75 16.324219 2.75 17.488281 3.78125 18.433594 5.046875 18.433594 6.316406 18.433594 7.347656 17.488281 7.347656 16.324219 7.347656 15.160156 6.316406 14.214844 5.046875 14.214844zM5.046875 17.414062C4.34375 17.414062 3.769531 16.925781 3.769531 16.324219 3.769531 15.726562 4.34375 15.238281 5.046875 15.238281 5.753906 15.238281 6.328125 15.726562 6.328125 16.324219 6.328125 16.925781 5.753906 17.414062 5.046875 17.414062zM9.21875 14.59375L14.78125 14.59375 14.78125 15.617188 9.21875 15.617188zM9.21875 17.035156L14.78125 17.035156 14.78125 18.054688 9.21875 18.054688zM9.21875 17.035156"/>
</svg>

<svg xmlns="http://www.w3.org/2000/svg" width="32" height="32" viewBox="0 0 24 24">
    <path d="M20.71 11.441L19.599 6.68c-.368-1.551-1.856-2.696-3.586-2.785V3.82A3.826 3.826 0 0 0 12.192 0h-.383a3.826 3.826 0 0 0-3.82 3.82v.075c-1.735.09-3.22 1.234-3.587 2.785L3.285 11.44C1.441 11.63 0 13.051 0 14.777v2.883c0 1.535 1.14 2.832 2.691 3.23v.946C2.691 23.03 3.75 24 5.051 24h.398c1.301 0 2.36-.969 2.36-2.164v-.82h8.382v.82c0 1.195 1.059 2.164 2.36 2.164h.398c1.301 0 2.36-.969 2.36-2.164v-.945c1.55-.399 2.691-1.696 2.691-3.23v-2.884c0-1.726-1.441-3.152-3.29-3.336zM11.81 1.02h.382c1.543 0 2.801 1.257 2.801 2.8v.067H9.008V3.82c0-1.543 1.258-2.8 2.8-2.8zm-6.41 5.894C5.671 5.75 6.851 4.906 8.21 4.906h7.578c1.36 0 2.54.844 2.813 2.008l1.058 4.508H4.34zm1.39 14.922c0 .633-.601 1.144-1.34 1.144h-.398c-.735 0-1.336-.511-1.336-1.144v-.82h3.074zm12.16 1.144h-.398c-.738 0-1.34-.511-1.34-1.144v-.82h3.074v.82c0 .633-.601 1.144-1.336 1.144zm4.031-5.32c0 1.285-1.203 2.336-2.675 2.336H3.695c-1.472 0-2.675-1.05-2.675-2.336v-2.883c0-1.289 1.203-2.336 2.675-2.336h16.61c1.472 0 2.675 1.047 2.675 2.336zm0 0"/>
    <path d="M18.953 14.215c-1.27 0-2.3.95-2.3 2.11 0 1.163 1.03 2.109 2.3 2.109 1.266 0 2.297-.946 2.297-2.11s-1.031-2.11-2.297-2.11zm0 3.2c-.707 0-1.281-.49-1.281-1.09 0-.598.574-1.087 1.281-1.087.703 0 1.277.489 1.277 1.086 0 .602-.574 1.09-1.277 1.09zm0 0M5.047 14.215c-1.266 0-2.297.95-2.297 2.11 0 1.163 1.031 2.109 2.297 2.109 1.27 0 2.3-.946 2.3-2.11s-1.03-2.11-2.3-2.11zm0 3.2c-.703 0-1.277-.49-1.277-1.09 0-.598.574-1.087 1.277-1.087.707 0 1.281.489 1.281 1.086 0 .602-.574 1.09-1.281 1.09zm0 0M9.219 14.594h5.562v1.023H9.22zm0 0M9.219 17.035h5.562v1.02H9.22zm0 0"/>
</svg>
